public/tools-icons/solidjs.svg

<svg xmlns="http://www.w3.org/2000/svg" width="24" height="24" fill="none"><g clip-path="url(#clip0_140_33)"><path fill="#26265a" d="M11.558 0.788061C10.9588 0.796437 10.3619 0.8641 9.776 0.990061L9.323 1.14006C8.417 1.44306 7.667 1.89506 7.223 2.48806L6.922 2.94006L4.887 6.46806C5.313 6.08106 5.861 5.77006 6.53 5.57406L7.144 5.42006C7.72782 5.29135 8.32422 5.22233 8.922 5.21406C11.838 5.16106 14.955 6.36206 17.345 7.57406C19.662 8.74906 21.233 9.89406 21.332 9.96406L24 5.51806C23.918 5.45806 22.34 4.30806 20.009 3.13206C17.616 1.92606 14.488 0.73606 11.559 0.78906L11.558 0.788061ZM8.924 5.36606C8.33694 5.37422 7.75225 5.44224 7.179 5.56906L6.573 5.72006C5.295 6.09606 4.478 6.88006 4.143 7.82806C3.809 8.77606 3.955 9.89306 4.63 10.9441C4.96 11.3741 5.377 11.7571 5.846 12.0911L12.328 10.0001H12.329C13.3423 9.70019 14.4106 9.63557 15.4527 9.81112C16.4947 9.98667 17.4829 10.3978 18.342 11.0131L21.186 10.0501C21.016 9.92606 19.523 8.85006 17.276 7.71006C14.897 6.50406 11.797 5.31406 8.924 5.36606ZM14.359 9.86306C13.6873 9.85875 13.0187 9.95413 12.375 10.1461L2.94 13.1891L0 18.3341L9.276 15.3421C10.6009 14.9465 12.0136 14.9555 13.3334 15.3677C14.6531 15.78 15.8198 16.5768 16.684 17.6561C17.379 18.5591 17.574 19.5631 17.344 20.4651L19.916 15.8351C20.511 14.7941 20.366 13.6101 19.614 12.4061C18.9822 11.6182 18.1827 10.9811 17.2737 10.5412C16.3646 10.1012 15.3689 9.86959 14.359 9.86306ZM11.328 15.2041C10.6489 15.1975 9.97274 15.2929 9.322 15.4871L0.008 18.4921C0.183 18.6231 2.028 19.9901 4.695 21.2601C7.492 22.5921 11.065 23.7271 14.163 22.9721L14.617 22.8201H14.619C15.897 22.4441 16.753 21.6581 17.106 20.7301C17.459 19.8001 17.313 18.7261 16.565 17.7521C15.9357 16.9655 15.1393 16.3289 14.2335 15.8882C13.3277 15.4475 12.3353 15.2138 11.328 15.2041Z"/></g><defs><clipPath id="clip0_140_33"><path fill="#fff" d="M0 0H24V24H0z"/></clipPath></defs></svg>

<svg xmlns="http://www.w3.org/2000/svg" width="24" height="24" fill="none" viewBox="0 0 24 24"><g clip-path="url(#a)"><path fill="#26265a" d="M11.558.788q-.901.013-1.782.202l-.453.15c-.906.303-1.656.755-2.1 1.348l-.301.452-2.035 3.528c.426-.387.974-.698 1.643-.894l.614-.154a9 9 0 0 1 1.778-.206c2.916-.053 6.033 1.148 8.423 2.36 2.317 1.175 3.888 2.32 3.987 2.39L24 5.518c-.082-.06-1.66-1.21-3.991-2.386C17.616 1.926 14.488.736 11.559.79zM8.924 5.366a8.6 8.6 0 0 0-1.745.203l-.606.151c-1.278.376-2.095 1.16-2.43 2.108s-.188 2.065.487 3.116c.33.43.747.813 1.216 1.147l6.482-2.09h.001a6.94 6.94 0 0 1 6.013 1.012l2.844-.963c-.17-.124-1.663-1.2-3.91-2.34-2.379-1.206-5.479-2.396-8.352-2.344m5.435 4.497a6.8 6.8 0 0 0-1.984.283L2.94 13.19 0 18.334l9.276-2.992a6.945 6.945 0 0 1 7.408 2.314c.695.903.89 1.907.66 2.81l2.572-4.63c.595-1.042.45-2.226-.302-3.43a6.8 6.8 0 0 0-5.255-2.543m-3.031 5.341a6.8 6.8 0 0 0-2.006.283L.008 18.492c.175.131 2.02 1.498 4.687 2.768 2.797 1.332 6.37 2.467 9.468 1.712l.454-.152h.002c1.278-.376 2.134-1.162 2.487-2.09.353-.93.207-2.004-.541-2.978a6.79 6.79 0 0 0-5.237-2.548"/></g><defs><clipPath id="a"><path fill="#fff" d="M0 0h24v24H0z"/></clipPath></defs></svg>
